X: 477
T: Xiu hebao
L: 1/8
M: 2/4
K: G
d2B A [I:setbarnb 1]| 
d2B A | 
d2B A | 
E GA2 | 
A d A d | 
A d A G | 
E> D E G | 
D4 | 
d B A G | 
E D E G | 
D4 |]

@@@ Tune index: 9351
